packages/web-client/static/assets/logos/logo-symbol.svg

<svg width="64" height="64" viewBox="0 0 64 64" fill="none" xmlns="http://www.w3.org/2000/svg">
<path d="M32.9153 63.1467C33.1203 63.1258 33.296 63.1927 33.3587 63.4311C33.3378 63.5733 33.275 63.6654 33.1956 63.7365C39.4115 63.2931 45.4894 61.3731 47.3885 59.4698C50.2748 56.5835 52.2575 41.4703 48.3966 38.2159C38.0018 29.4525 39.2442 24.6421 37.6128 21.8478C36.245 19.5054 29.9747 16.7278 27.1637 15.0254C27.1386 15.1174 27.0633 15.1634 26.9629 15.1257C26.8541 15.0839 26.7914 14.9793 26.8374 14.8664C26.8416 14.858 26.8541 14.8497 26.8625 14.8413C26.4651 14.5903 26.1556 14.3644 25.9757 14.172C24.5786 12.6996 25.5114 3.54719 25.5114 3.54719C21.2782 6.83085 19.7932 15.954 20.086 19.0201C20.1362 18.9657 20.2073 18.9281 20.2994 18.9281C20.4207 18.9239 20.5043 18.995 20.5043 19.1331C20.475 19.3004 20.3747 19.3966 20.2073 19.4008C20.1781 19.4008 20.1613 19.3841 20.1362 19.3799C20.1446 19.4259 20.1488 19.4886 20.1571 19.5305C20.7009 21.9357 26.5195 23.7971 24.1896 27.2105C21.8638 30.6238 13.64 43.1101 13.4058 45.9043C13.1715 48.6986 14.9577 57.9263 20.6215 61.5739C22.1984 62.5903 24.2063 63.222 26.4107 63.5524C26.4442 63.5399 26.4651 63.5148 26.5069 63.5106C26.5613 63.5273 26.5906 63.5566 26.6324 63.5817C27.7744 63.7407 28.9624 63.8243 30.1754 63.8369C30.1587 63.8159 30.1545 63.7867 30.1462 63.7574C30.1796 63.7532 30.2215 63.7323 30.2382 63.7448C30.2591 63.7616 30.2633 63.8034 30.2758 63.8369C30.2716 63.8369 30.2716 63.8369 30.2675 63.8369C31.0204 63.8452 31.7817 63.8243 32.5472 63.7825C32.5054 63.7365 32.4719 63.6821 32.4719 63.6026C32.4803 63.3265 32.656 63.1718 32.9153 63.1467ZM48.2628 54.2536C48.2711 54.2285 48.2879 54.2034 48.3046 54.1783C48.3004 54.2076 48.3004 54.2369 48.292 54.262C48.2795 54.2912 48.2628 54.3205 48.246 54.3456C48.2502 54.3163 48.2502 54.2829 48.2628 54.2536ZM47.1752 46.2766C47.1877 46.2557 47.2254 46.2515 47.2547 46.2431C47.2756 46.2641 47.3216 46.285 47.3174 46.3017C47.3132 46.3812 47.263 46.4063 47.1877 46.3561C47.171 46.3477 47.1626 46.2933 47.1752 46.2766ZM45.7697 38.7848C45.7948 38.8434 45.8199 38.9061 45.845 38.9689C45.7864 38.9982 45.7279 39.0274 45.6693 39.0609C45.6442 39.0023 45.5856 38.9271 45.6024 38.881C45.6191 38.835 45.7111 38.8141 45.7697 38.7848ZM45.0962 36.9108C45.0628 36.9192 45.0293 36.9276 44.9958 36.9359C44.9875 36.9025 44.9624 36.8439 44.9749 36.8356C45.0628 36.7728 45.1046 36.8021 45.0962 36.9108ZM44.222 41.1775C44.3977 41.2319 44.452 41.3908 44.4144 41.5582C44.3893 41.6795 44.2973 41.759 44.109 41.7171C43.9794 41.6627 43.9208 41.5205 43.9584 41.3532C43.9919 41.2277 44.0965 41.1357 44.222 41.1775ZM43.8706 37.7684C43.9082 37.8311 43.9417 37.8897 43.9794 37.9524C43.9375 38.011 43.8999 38.1156 43.8581 38.1156C43.7075 38.1197 43.6782 37.9984 43.7116 37.8855C43.7284 37.8353 43.8162 37.806 43.8706 37.7684ZM43.7828 44.8627C43.9041 44.8502 44.0254 44.8753 44.0463 45.005C44.0714 45.143 43.9543 45.2016 43.8371 45.1974C43.7702 45.1974 43.674 45.1556 43.6489 45.1054C43.582 44.9799 43.6573 44.9004 43.7828 44.8627ZM43.72 55.4123C43.9082 55.4876 43.9794 55.6674 44.017 55.8306C44.0254 55.9435 43.9752 56.0146 43.8957 55.9895C43.7033 55.9268 43.5987 55.7678 43.5485 55.588C43.515 55.4625 43.5736 55.3537 43.72 55.4123ZM43.5234 60.6703C43.5778 60.7038 43.6573 60.7289 43.6824 60.7791C43.7284 60.8586 43.6782 60.9171 43.5903 60.9129C43.5611 60.9129 43.5109 60.8795 43.5067 60.8544C43.5025 60.7958 43.5192 60.7331 43.5234 60.6703ZM42.3187 38.2871L42.3522 38.3456L42.2852 38.3498L42.3187 38.2871ZM39.3571 27.7333C39.3864 27.7417 39.4073 27.7793 39.4282 27.8044C39.4032 27.8254 39.3739 27.8672 39.3613 27.863C39.332 27.8546 39.3111 27.817 39.2902 27.7919C39.3153 27.771 39.3446 27.7291 39.3571 27.7333ZM39.3906 35.3715C39.4241 35.3799 39.4659 35.4008 39.4826 35.4259C39.5328 35.5054 39.5035 35.5807 39.4115 35.5807C39.353 35.5807 39.2986 35.5137 39.24 35.4803C39.2484 35.3882 39.3028 35.3506 39.3906 35.3715ZM37.9935 30.1929C38.1984 30.3435 38.1943 30.5903 38.2403 30.8078C38.3281 30.8622 38.416 30.9208 38.5038 30.9752C38.3114 31.0839 38.3281 30.8622 38.2361 30.8078C38.073 30.6531 37.8554 30.5359 37.8345 30.2808C37.8303 30.1929 37.9182 30.1386 37.9935 30.1929ZM37.6296 57.8761C37.6296 57.9054 37.6379 57.9514 37.6212 57.9681C37.5543 58.0267 37.5041 58.0016 37.4957 57.9137C37.4915 57.8886 37.525 57.8468 37.5501 57.8426C37.571 57.8342 37.6003 57.8635 37.6296 57.8761ZM37.5794 34.7817C37.5919 34.8026 37.5835 34.857 37.5626 34.8779C37.5459 34.8946 37.4999 34.8905 37.4706 34.8946C37.4581 34.8654 37.4288 34.8277 37.4371 34.8026C37.4664 34.7148 37.525 34.7064 37.5794 34.7817ZM37.2447 42.8549C37.2154 42.9846 37.0565 43.0599 36.9896 42.9511C36.7637 42.5914 36.5587 42.2316 36.2282 41.9472C36.153 41.8844 36.2826 41.7506 36.4709 41.7464C36.8264 41.7757 37.3409 42.4533 37.2447 42.8549ZM36.1613 30.2933C36.1697 30.2599 36.1822 30.2264 36.1906 30.1929C36.2241 30.2013 36.2533 30.2097 36.2868 30.218C36.2784 30.2515 36.2784 30.2975 36.2533 30.3142C36.2366 30.3268 36.1948 30.3017 36.1613 30.2933ZM36.5085 21.898C36.6716 21.9315 36.7888 22.0277 36.8139 22.195C36.8306 22.3205 36.7679 22.4293 36.6256 22.4125C36.4583 22.3958 36.3454 22.2829 36.3203 22.1197C36.3035 21.9901 36.3621 21.898 36.5085 21.898ZM36.2157 26.4491C36.2408 26.4491 36.2659 26.4868 36.2868 26.5077C36.2617 26.5286 36.2366 26.5621 36.2115 26.5621C36.1864 26.5621 36.1613 26.5244 36.1404 26.5035C36.1655 26.4868 36.1906 26.4491 36.2157 26.4491ZM35.1072 37.0907C35.1239 37.1033 35.1281 37.1576 35.1156 37.1786C35.103 37.1995 35.0612 37.2037 35.0319 37.212C35.011 37.1869 34.9733 37.1618 34.9733 37.1409C34.9859 37.0531 35.0361 37.0322 35.1072 37.0907ZM34.0949 32.3012C34.2748 32.2886 34.3543 32.4183 34.3668 32.5898C34.3501 32.7153 34.2915 32.8073 34.1535 32.7948C34.028 32.7822 33.9652 32.6776 33.9443 32.5605C33.9234 32.435 33.9694 32.3137 34.0949 32.3012ZM32.9362 56.7969C33.1203 56.8136 33.183 56.96 33.1872 57.1315C33.1663 57.2695 33.0701 57.3574 32.953 57.303C32.8651 57.2612 32.7898 57.1357 32.7647 57.0353C32.7313 56.9182 32.794 56.7843 32.9362 56.7969ZM21.1025 12.8837C20.9812 12.8878 20.8724 12.846 20.8473 12.7205C20.8097 12.5281 20.9435 12.4486 21.1067 12.4528C21.2238 12.457 21.32 12.5365 21.3116 12.6661C21.3075 12.7874 21.228 12.8669 21.1025 12.8837ZM22.3825 16.9997C22.1984 17.0918 22.1315 16.8784 22.1231 16.7195C22.1106 16.389 22.2152 16.1129 22.4703 15.9373C22.6669 15.954 22.7255 16.0586 22.7171 16.1799C22.7046 16.4936 22.7004 16.845 22.3825 16.9997ZM24.1645 18.995C24.1101 18.9574 24.0222 18.9281 24.0055 18.8779C23.993 18.8361 24.0557 18.765 24.0892 18.7106C24.1435 18.7482 24.2314 18.7775 24.2481 18.8277C24.2607 18.8695 24.1937 18.9365 24.1645 18.995ZM16.4468 42.8465C16.4259 42.8214 16.3882 42.7963 16.3841 42.7671C16.3841 42.7461 16.4301 42.7252 16.4552 42.7043C16.4761 42.7294 16.5012 42.7587 16.5221 42.7838C16.497 42.8047 16.4719 42.8256 16.4468 42.8465ZM17.5009 40.3409C17.4089 40.3367 17.3796 40.2573 17.4256 40.1778C17.4424 40.1485 17.48 40.1234 17.5135 40.1192C17.6055 40.1025 17.6557 40.1485 17.6682 40.2405C17.6139 40.274 17.5553 40.3409 17.5009 40.3409ZM18.3584 56.6421C18.2455 56.7216 18.1116 56.6839 18.1451 56.5208C18.166 56.4246 18.2748 56.3284 18.3626 56.2614C18.4421 56.2029 18.5132 56.2531 18.5383 56.3911C18.4923 56.4622 18.4463 56.5835 18.3584 56.6421ZM18.5258 52.9903C18.4379 53.0363 18.3877 53.0029 18.3961 52.8983C18.3961 52.8732 18.4421 52.8356 18.4714 52.8314C18.4965 52.8314 18.5258 52.869 18.555 52.8899C18.5425 52.9276 18.5467 52.982 18.5258 52.9903ZM19.5464 50.2881C19.4544 50.309 19.3875 50.2714 19.3958 50.1668C19.4042 50.012 19.4084 49.8531 19.4586 49.7067C19.4879 49.6146 19.5966 49.6272 19.6301 49.7276C19.6928 49.9242 19.6761 50.1166 19.5464 50.2881ZM21.2698 55.9895C21.2447 55.9979 21.1945 55.9854 21.1862 55.9686C21.1401 55.8933 21.1694 55.8431 21.2573 55.8473C21.2782 55.8473 21.2991 55.8891 21.32 55.9142C21.3033 55.9435 21.2907 55.9812 21.2698 55.9895ZM21.7634 33.3051L21.755 33.2382L21.8136 33.2633L21.7634 33.3051ZM22.6 36.1161C22.5875 36.137 22.5331 36.1286 22.4996 36.1328C22.4829 36.1035 22.4536 36.0701 22.4578 36.0491C22.4662 36.024 22.5038 35.9864 22.5289 35.9864C22.6335 35.9864 22.6586 36.0366 22.6 36.1161ZM23.7587 58.4952C23.7085 58.4826 23.6332 58.3864 23.6416 58.3404C23.6625 58.2107 23.7796 58.1647 23.8967 58.194C23.9511 58.2065 23.9804 58.2986 24.0222 58.3529C23.9804 58.4784 23.8758 58.5244 23.7587 58.4952ZM24.9048 21.0656C24.8714 21.1116 24.8379 21.1535 24.8003 21.1995C24.8337 21.1535 24.8672 21.1074 24.9048 21.0656ZM25.4445 39.4583C25.5072 39.4918 25.5992 39.5127 25.6201 39.5671C25.6369 39.6131 25.5783 39.6925 25.549 39.7553C25.4863 39.7218 25.3943 39.6967 25.3733 39.6465C25.3566 39.6005 25.4194 39.521 25.4445 39.4583ZM25.7122 62.8539C25.4947 62.7911 25.365 62.6489 25.411 62.423C25.4486 62.2431 25.6034 62.1804 25.7791 62.2348C25.9464 62.285 26.0426 62.4188 26.0301 62.5903C26.0133 62.7744 25.9004 62.8706 25.7122 62.8539ZM26.394 47.6737C26.3354 47.6444 26.2518 47.6277 26.2183 47.5817C26.1681 47.5106 26.2099 47.4269 26.2978 47.4269C26.3564 47.4269 26.44 47.4646 26.4735 47.5148C26.5237 47.5817 26.4818 47.6486 26.394 47.6737ZM26.7454 20.7435C26.7161 20.7895 26.6073 20.8481 26.5781 20.8272C26.4693 20.7603 26.4651 20.639 26.5279 20.5386C26.5571 20.4884 26.645 20.4758 26.7035 20.4465C26.7956 20.5344 26.8039 20.6431 26.7454 20.7435ZM31.1375 42.8047L31.0915 42.8633L31.0622 42.7922L31.1375 42.8047ZM27.2013 57.441C27.1804 57.4159 27.1386 57.3867 27.1428 57.3741C27.1511 57.3448 27.1888 57.3239 27.2139 57.303C27.2348 57.3281 27.2766 57.3574 27.2724 57.3699C27.2641 57.395 27.2264 57.4159 27.2013 57.441ZM27.4105 41.6878C27.3561 41.6544 27.2682 41.6335 27.2473 41.5833C27.2013 41.4661 27.2557 41.3616 27.3728 41.3239C27.4147 41.3114 27.515 41.3699 27.5318 41.4201C27.5778 41.5372 27.5234 41.6335 27.4105 41.6878ZM28.1467 54.3958C28.1132 54.3916 28.0672 54.3833 28.0463 54.3582C27.9794 54.2871 27.9961 54.2285 28.0881 54.195C28.1509 54.2201 28.2513 54.2285 28.268 54.2745C28.3015 54.3498 28.2387 54.4042 28.1467 54.3958ZM29.0669 21.9984L29.113 21.9524L29.1297 22.0152L29.0669 21.9984ZM30.5937 31.1425C30.5686 31.201 30.485 31.2596 30.4222 31.2763C30.2842 31.3098 30.2131 31.2136 30.1922 31.0923C30.1713 30.9793 30.1671 30.8622 30.1629 30.7493C30.1545 30.4941 29.8743 30.2599 30.1085 29.9963C30.1503 29.9503 30.2591 29.9252 30.3177 29.9461C30.6899 30.0674 30.669 30.4021 30.7109 30.766C30.6816 30.858 30.6523 31.0086 30.5937 31.1425ZM30.6314 22.3331C30.2967 22.2118 30.1545 21.9357 30.188 21.5885C30.2005 21.4672 30.3051 21.3919 30.531 21.4337C30.782 21.5174 30.9702 21.7474 30.9577 22.103C30.9451 22.2829 30.8029 22.3958 30.6314 22.3331ZM31.2045 52.5595C31.1124 52.6515 31.0204 52.5009 30.9577 52.4131C30.9158 52.3503 30.8865 52.2792 30.8531 52.2123L30.8573 52.2081C30.9242 52.2416 30.9995 52.2708 31.0581 52.3127C31.1501 52.3712 31.2965 52.4674 31.2045 52.5595ZM31.0581 44.5741C30.9284 44.5616 30.8615 44.457 30.8865 44.3357C30.8991 44.2771 30.9744 44.1976 31.033 44.1893C31.1584 44.1684 31.2421 44.2437 31.263 44.3733C31.2588 44.4988 31.1919 44.5867 31.0581 44.5741ZM31.7943 29.9043C31.7566 29.8583 31.7148 29.8123 31.6771 29.7663C31.7273 29.7244 31.7733 29.6575 31.8277 29.6533C31.8612 29.6491 31.9072 29.737 31.9448 29.7788C31.8947 29.8248 31.8445 29.8625 31.7943 29.9043Z" fill="#F37131"/>
<path d="M46.2256 27.8797C49.4047 25.6878 44.4395 13.6282 44.4395 13.6282C45.1004 18.7441 41.8042 21.463 41.8042 23.4792C41.8042 25.4954 44.7532 28.892 46.2256 27.8797ZM43.1888 21.9859C43.126 21.9608 43.0633 21.9148 43.0215 21.8646C42.9629 21.7893 42.9964 21.714 43.0884 21.7182C43.1971 21.7182 43.2892 21.7767 43.3268 21.919C43.3268 21.9817 43.2766 22.0235 43.1888 21.9859ZM44.5441 16.6149C44.5148 16.5982 44.4855 16.5605 44.473 16.5271C44.4395 16.4308 44.4897 16.3556 44.5817 16.3765C44.6361 16.389 44.6737 16.481 44.7198 16.5354C44.6947 16.6358 44.6361 16.6693 44.5441 16.6149ZM45.3221 27.3903C45.2761 27.1603 45.2552 26.8967 45.5396 26.8214C45.8073 26.7503 45.983 26.926 46.0249 27.1812C46.0667 27.4322 45.9537 27.6246 45.7069 27.7208C45.4601 27.7459 45.3639 27.5869 45.3221 27.3903Z" fill="#F37131"/>
<path d="M33.8144 8.7383C32.8691 7.05255 33.3334 1.42641 33.4714 0C33.1703 1.5519 30.7608 5.41281 30.4011 7.42065C30.0121 9.59163 31.5305 12.1056 33.8144 13.6241C35.6759 14.8664 34.8978 10.6792 33.8144 8.7383ZM32.3964 11.7877C32.3671 11.7793 32.3378 11.7417 32.3337 11.7124C32.3337 11.6957 32.3797 11.6706 32.4048 11.6497C32.4257 11.6748 32.4508 11.7041 32.4717 11.7292C32.4466 11.7501 32.4173 11.7961 32.3964 11.7877Z" fill="#F37131"/>
<path d="M17.6014 32.0878C17.6014 32.0878 21.5585 28.0554 19.6971 24.9516C17.8356 21.8478 17.1371 19.1331 17.2165 17.0416C17.2123 17.0416 13.5689 29.3731 17.6014 32.0878ZM18.187 30.264C18.2121 30.3268 18.2706 30.3979 18.2539 30.4439C18.2372 30.4899 18.1452 30.5108 18.0866 30.5401C18.0615 30.4774 18.0029 30.4063 18.0197 30.3603C18.0364 30.3142 18.1284 30.2933 18.187 30.264ZM16.9614 23.0149C17.1036 22.9103 17.2709 22.9856 17.3671 23.1111C17.7645 23.6382 17.4884 24.1359 17.2835 24.6337L17.2793 24.6295C17.1329 24.1903 16.9823 23.7553 16.8526 23.3119C16.8275 23.224 16.8861 23.0651 16.9614 23.0149ZM17.045 28.7916C16.9279 28.7623 16.8568 28.662 16.8777 28.5448C16.8986 28.4235 17.0032 28.3608 17.1203 28.3942C17.2374 28.4235 17.2918 28.5197 17.2876 28.641C17.25 28.7623 17.1621 28.8209 17.045 28.7916Z" fill="#F37131"/>
<path d="M39.0518 40.617L33.8733 41.2152L31.6605 44.3106L28.8035 41.805L23.6249 42.4031L21.4121 45.4986L22.0228 50.7775L33.3546 58.9553L42.5196 48.4057L41.9088 43.1268L39.0518 40.617Z" fill="white"/>
</svg>

<svg xmlns="http://www.w3.org/2000/svg" width="64" height="64" fill="none"><path fill="#F37131" d="M33 63.1c.1 0 .3 0 .4.3 0 .2-.1.3-.2.3 6.2-.4 12.3-2.3 14.2-4.2 2.9-3 4.9-18 1-21.3-10.4-8.7-9.2-13.6-10.8-16.4-1.4-2.3-7.6-5-10.4-6.8 0 .1-.1.2-.2.1l-.2-.2-.8-.7c-1.4-1.5-.5-10.7-.5-10.7C21.3 6.8 19.8 16 20.1 19h.2l.2.1c0 .2-.1.3-.3.3v.1c.5 2.4 6.3 4.3 4 7.7A103.3 103.3 0 0 0 13.4 46c-.2 2.8 1.6 12 7.2 15.7 1.6 1 3.6 1.6 5.8 2h.2l3.6.2h2.3v-.2c0-.3.2-.4.4-.5Zm15.3-8.8v-.1.1Zm-1.1-8h.1s0 .1-.1 0Zm-1.4-7.5v.2h-.1l-.1-.1.2-.1Zm-.7-1.9H45c0-.1.1-.1.1 0Zm-.9 4.3c.2 0 .3.2.2.4 0 0-.1.2-.3.1-.1 0-.2-.2-.1-.3 0-.2.1-.3.2-.2Zm-.3-3.4V38c-.2 0-.2-.1-.2-.2l.2-.1Zm-.1 7c.1 0 .2 0 .2.2 0 .1 0 .2-.2.2h-.2c0-.2 0-.3.2-.3Zm0 10.6.2.4-.1.2c-.2 0-.3-.2-.4-.4 0-.1 0-.2.2-.2Zm-.3 5.3h.2l-.1.2c-.1-.1 0-.2 0-.2Zm-1.2-22.4Zm-3-10.6.1.1h-.1Zm0 7.7h.2v.2l-.3-.1.2-.1ZM38 30.2c.2.1.2.4.2.6l.3.2c-.2 0-.2-.1-.3-.2l-.4-.5c0-.1.1-.2.2-.1Zm-.4 27.7c0 .1-.1.1-.1 0h.1Zm0-23.1h-.1Zm-.4 8c0 .2-.1.3-.2.2-.2-.4-.4-.8-.8-1 0-.1 0-.2.3-.3.3 0 .8.8.7 1.2Zm-1-12.5v-.1.1Zm.3-8.4c.2 0 .3.1.3.3 0 .1 0 .2-.2.2a.3.3 0 0 1-.3-.3c0-.1 0-.2.2-.2Zm-.3 4.5v.1Zm-1 10.7-.2.1c0-.1 0-.2.1-.1ZM34 32.3c.2 0 .3.1.3.3l-.2.2c-.2 0-.2-.1-.3-.2 0-.2 0-.3.2-.3Zm-1.2 24.5c.2 0 .3.2.3.3 0 .2-.1.3-.2.2l-.2-.3.1-.2Zm-11.8-44h-.3c0-.3.1-.4.3-.3.1 0 .2 0 .2.2 0 0 0 .2-.2.2Zm1.3 4.2c-.2 0-.3-.1-.3-.3 0-.3.1-.6.4-.8.2 0 .2.2.2.3 0 .3 0 .6-.3.8Zm1.8 2-.2-.1v-.2l.2.1v.2Zm-7.8 23.8v-.1h.1v.1Zm1.1-2.5s-.1 0 0-.1.2 0 .2 0l-.2.1Zm.9 16.3H18c0-.2.2-.3.3-.3 0-.1.1 0 .1 0l-.1.3Zm.1-3.6-.1-.1h.2Zm1-2.7-.1-.1v-.5h.2v.6Zm1.8 5.7h-.1v-.2l.1.1Zm.5-22.7Zm.8 2.8h-.1V36c.1 0 .2 0 .1.1Zm1.2 22.4-.2-.2.3-.1.1.2-.2.1Zm1.1-37.4Zm.5 18.4h.2v.3l-.2-.2v-.1Zm.3 23.4c-.2-.1-.3-.3-.3-.5s.2-.2.4-.2l.2.4c0 .2-.1.3-.3.3Zm.7-15.2-.2-.1.1-.2.2.1-.1.2Zm.3-27-.1.1v-.3h.1c.1 0 .1.1 0 .2Zm4.4 22.1Zm-3.9 14.6v-.1.1Zm.2-15.7-.2-.1c0-.1 0-.2.2-.3l.1.1v.3Zm.7 12.7c-.1-.1-.1-.2 0-.2h.2c0 .1 0 .2-.2.2Zm1-32.4Zm1.5 9.1-.2.2c-.1 0-.2 0-.2-.2v-.4c0-.2-.3-.4 0-.7h.1c.4 0 .4.4.4.8l-.1.3Zm0-8.8c-.3 0-.4-.4-.4-.7 0-.1.1-.2.3-.2.3.1.5.3.5.7 0 .2-.2.3-.4.2Zm.6 30.3-.2-.2-.1-.2.2.1s.2.2.1.3Zm-.1-8c-.2 0-.2-.1-.2-.3l.1-.1c.2 0 .2 0 .3.2l-.2.2Zm.7-14.7-.1-.1.1-.1h.1l-.1.2ZM46.2 27.9c3.2-2.2-1.8-14.3-1.8-14.3.7 5.1-2.6 7.9-2.6 9.9s3 5.4 4.4 4.4Zm-3-6H43v-.2c.2 0 .3 0 .3.2 0 0 0 .1-.1 0Zm1.3-5.3v-.2l.2.1c0 .1 0 .2-.2.1Zm.8 10.8c0-.2 0-.5.2-.6.3 0 .5.1.5.4 0 .2 0 .4-.3.5-.2 0-.3-.1-.4-.3ZM33.8 8.7c-1-1.6-.5-7.3-.3-8.7-.3 1.6-2.7 5.4-3.1 7.4-.4 2.2 1.1 4.7 3.4 6.2 1.9 1.3 1.1-3 0-4.9Zm-1.4 3s0 .1 0 0Z"/><path fill="#F37131" d="M17.6 32s4-4 2.1-7a14.8 14.8 0 0 1-2.5-8s-3.6 12.4.4 15Zm.6-1.7v.1l-.1.1s-.1 0 0-.1v-.1ZM17 23l.4.1c.4.5 0 1-.1 1.5l-.4-1.3V23Zm0 5.8-.1-.3.2-.1.2.2c0 .2-.1.2-.3.2Z"/><path fill="#fff" d="m39 40.6-5.1.6-2.2 3.1-2.9-2.5-5.2.6-2.2 3.1.6 5.3L33.4 59l9.1-10.6-.6-5.3-2.8-2.5Z"/></svg>
